static/data/images/sponsors/ot_hovedlogo.svg

<svg fill="none" height="80" viewBox="0 0 443 80" width="443" xmlns="http://www.w3.org/2000/svg"><g fill="#2b2b2b"><path d="m0 80 19.7143-80 76.2857 20.6742-14.6129 59.2987-49.5791-32.3324z"/><path d="m139.824 60.672c-2.539 0-4.835-.4293-6.888-1.288-2.016-.896-3.752-2.184-5.208-3.864-1.419-1.7173-2.52-3.8267-3.304-6.328-.784-2.5387-1.176-5.4507-1.176-8.736s.392-6.1787 1.176-8.68 1.885-4.6107 3.304-6.328c1.456-1.7173 3.192-3.0053 5.208-3.864 2.053-.896 4.349-1.344 6.888-1.344 2.501 0 4.779.448 6.832 1.344 2.053.8587 3.789 2.1467 5.208 3.864 1.456 1.7173 2.576 3.8267 3.36 6.328s1.176 5.3947 1.176 8.68-.392 6.1973-1.176 8.736c-.784 2.5013-1.904 4.6107-3.36 6.328-1.419 1.68-3.155 2.968-5.208 3.864-2.053.8587-4.331 1.288-6.832 1.288zm0-4.2c1.68 0 3.229-.2987 4.648-.896s2.632-1.456 3.64-2.576c1.045-1.12 1.848-2.464 2.408-4.032s.84-3.3227.84-5.264v-6.496c0-1.9413-.28-3.696-.84-5.264s-1.363-2.912-2.408-4.032c-1.008-1.12-2.221-1.9787-3.64-2.576s-2.968-.896-4.648-.896-3.229.2987-4.648.896-2.651 1.456-3.696 2.576c-1.008 1.12-1.792 2.464-2.352 4.032s-.84 3.3227-.84 5.264v6.496c0 1.9413.28 3.696.84 5.264s1.344 2.912 2.352 4.032c1.045 1.12 2.277 1.9787 3.696 2.576s2.968.896 4.648.896zm29.844 3.528c-1.568 0-2.762-.4293-3.584-1.288-.784-.896-1.176-2.016-1.176-3.36v-36.792h4.48v37.52h4.256v3.92zm31.998 0c-1.68 0-2.893-.448-3.64-1.344-.709-.896-1.157-2.016-1.344-3.36h-.28c-.634 1.792-1.68 3.136-3.136 4.032s-3.192 1.344-5.208 1.344c-3.061 0-5.45-.784-7.168-2.352-1.68-1.568-2.52-3.696-2.52-6.384 0-2.7253.99-4.816 2.968-6.272 2.016-1.456 5.134-2.184 9.352-2.184h5.712v-2.856c0-2.0533-.56-3.6213-1.68-4.704s-2.837-1.624-5.152-1.624c-1.754 0-3.229.392-4.424 1.176-1.157.784-2.128 1.8293-2.912 3.136l-2.688-2.52c.784-1.568 2.035-2.8933 3.752-3.976 1.718-1.12 3.883-1.68 6.496-1.68 3.51 0 6.235.8587 8.176 2.576 1.942 1.7173 2.912 4.1067 2.912 7.168v15.904h3.304v3.92zm-12.88-3.136c1.12 0 2.147-.1307 3.08-.392.934-.2613 1.736-.6347 2.408-1.12s1.195-1.0453 1.568-1.68c.374-.6347.56-1.3253.56-2.072v-4.76h-5.936c-2.576 0-4.461.3733-5.656 1.12-1.157.7467-1.736 1.8293-1.736 3.248v1.176c0 1.4187.504 2.52 1.512 3.304 1.046.784 2.446 1.176 4.2 1.176zm28.241 3.136-10.136-28.896h4.48l5.04 14.336 3.136 9.856h.28l3.136-9.856 5.152-14.336h4.312l-10.192 28.896zm30.358.672c-2.688 0-4.946-.504-6.776-1.512-1.792-1.0453-3.341-2.4267-4.648-4.144l3.192-2.576c1.12 1.4187 2.371 2.52 3.752 3.304 1.382.7467 2.987 1.12 4.816 1.12 1.904 0 3.379-.4107 4.424-1.232 1.083-.8213 1.624-1.9787 1.624-3.472 0-1.12-.373-2.072-1.12-2.856-.709-.8213-2.016-1.3813-3.92-1.68l-2.296-.336c-1.344-.1867-2.576-.4667-3.696-.84-1.12-.4107-2.109-.9333-2.968-1.568-.821-.672-1.474-1.4933-1.96-2.464-.448-.9707-.672-2.128-.672-3.472 0-1.4187.262-2.6507.784-3.696.523-1.0827 1.232-1.9787 2.128-2.688.934-.7093 2.035-1.232 3.304-1.568 1.27-.3733 2.632-.56 4.088-.56 2.352 0 4.312.4107 5.88 1.232 1.606.8213 3.006 1.96 4.2 3.416l-2.968 2.688c-.634-.896-1.568-1.6987-2.8-2.408-1.232-.7467-2.781-1.12-4.648-1.12-1.866 0-3.285.4107-4.256 1.232-.933.784-1.4 1.8667-1.4 3.248 0 1.4187.467 2.4453 1.4 3.08.971.6347 2.352 1.1013 4.144 1.4l2.24.336c3.211.4853 5.488 1.4187 6.832 2.8 1.344 1.344 2.016 3.1173 2.016 5.32 0 2.8-.952 5.0027-2.856 6.608s-4.517 2.408-7.84 2.408zm25.111-.672c-1.568 0-2.763-.4293-3.584-1.288-.784-.896-1.176-2.0533-1.176-3.472v-20.216h-4.76v-3.92h2.688c.97 0 1.624-.1867 1.96-.56.373-.4107.56-1.1013.56-2.072v-5.376h4.032v8.008h6.328v3.92h-6.328v21.056h5.88v3.92zm24.45.672c-1.942 0-3.715-.3547-5.32-1.064-1.606-.7093-2.987-1.7173-4.144-3.024-1.12-1.344-1.998-2.9307-2.632-4.76-.635-1.8667-.952-3.9573-.952-6.272 0-2.2773.317-4.3493.952-6.216.634-1.8667 1.512-3.4533 2.632-4.76 1.157-1.344 2.538-2.3707 4.144-3.08 1.605-.7093 3.378-1.064 5.32-1.064 1.941 0 3.696.3547 5.264 1.064 1.605.7093 2.986 1.736 4.144 3.08 1.157 1.3067 2.053 2.8933 2.688 4.76.634 1.8667.952 3.9387.952 6.216 0 2.3147-.318 4.4053-.952 6.272-.635 1.8293-1.531 3.416-2.688 4.76-1.158 1.3067-2.539 2.3147-4.144 3.024-1.568.7093-3.323 1.064-5.264 1.064zm0-3.976c2.426 0 4.405-.7467 5.936-2.24 1.53-1.4933 2.296-3.7707 2.296-6.832v-4.144c0-3.0613-.766-5.3387-2.296-6.832-1.531-1.4933-3.51-2.24-5.936-2.24-2.427 0-4.406.7467-5.936 2.24-1.531 1.4933-2.296 3.7707-2.296 6.832v4.144c0 3.0613.765 5.3387 2.296 6.832 1.53 1.4933 3.509 2.24 5.936 2.24zm20.916-25.592h4.48v4.704h.224c.746-1.8293 1.829-3.1733 3.248-4.032 1.456-.896 3.192-1.344 5.208-1.344 1.792 0 3.416.3547 4.872 1.064s2.688 1.7173 3.696 3.024c1.045 1.3067 1.829 2.8933 2.352 4.76.56 1.8667.84 3.9573.84 6.272s-.28 4.4053-.84 6.272c-.523 1.8667-1.307 3.4533-2.352 4.76-1.008 1.3067-2.24 2.3147-3.696 3.024s-3.08 1.064-4.872 1.064c-3.92 0-6.739-1.792-8.456-5.376h-.224v15.904h-4.48zm11.928 25.536c2.538 0 4.536-.784 5.992-2.352 1.456-1.6053 2.184-3.696 2.184-6.272v-4.928c0-2.576-.728-4.648-2.184-6.216-1.456-1.6053-3.454-2.408-5.992-2.408-1.008 0-1.979.1493-2.912.448-.896.2613-1.68.6347-2.352 1.12s-1.214 1.0827-1.624 1.792c-.374.672-.56 1.4-.56 2.184v10.752c0 .9333.186 1.7733.56 2.52.41.7093.952 1.3253 1.624 1.848.672.4853 1.456.8587 2.352 1.12.933.2613 1.904.392 2.912.392zm21.056-25.536h4.48v4.704h.224c.747-1.8293 1.829-3.1733 3.248-4.032 1.456-.896 3.192-1.344 5.208-1.344 1.792 0 3.416.3547 4.872 1.064s2.688 1.7173 3.696 3.024c1.045 1.3067 1.829 2.8933 2.352 4.76.56 1.8667.84 3.9573.84 6.272s-.28 4.4053-.84 6.272c-.523 1.8667-1.307 3.4533-2.352 4.76-1.008 1.3067-2.24 2.3147-3.696 3.024s-3.08 1.064-4.872 1.064c-3.92 0-6.739-1.792-8.456-5.376h-.224v15.904h-4.48zm11.928 25.536c2.539 0 4.536-.784 5.992-2.352 1.456-1.6053 2.184-3.696 2.184-6.272v-4.928c0-2.576-.728-4.648-2.184-6.216-1.456-1.6053-3.453-2.408-5.992-2.408-1.008 0-1.979.1493-2.912.448-.896.2613-1.68.6347-2.352 1.12s-1.213 1.0827-1.624 1.792c-.373.672-.56 1.4-.56 2.184v10.752c0 .9333.187 1.7733.56 2.52.411.7093.952 1.3253 1.624 1.848.672.4853 1.456.8587 2.352 1.12.933.2613 1.904.392 2.912.392zm31.92 4.032c-1.978 0-3.77-.3547-5.376-1.064-1.568-.7093-2.93-1.7173-4.088-3.024-1.12-1.344-1.997-2.9307-2.632-4.76-.597-1.8667-.896-3.9573-.896-6.272 0-2.2773.299-4.3493.896-6.216.635-1.8667 1.512-3.4533 2.632-4.76 1.158-1.344 2.52-2.3707 4.088-3.08 1.606-.7093 3.398-1.064 5.376-1.064 1.942 0 3.678.3547 5.208 1.064 1.531.7093 2.838 1.6987 3.92 2.968 1.083 1.232 1.904 2.7067 2.464 4.424.598 1.7173.896 3.6027.896 5.656v2.128h-20.776v1.344c0 1.232.187 2.3893.56 3.472.411 1.0453.971 1.96 1.68 2.744.747.784 1.643 1.4 2.688 1.848 1.083.448 2.296.672 3.64.672 1.83 0 3.416-.4293 4.76-1.288 1.382-.8587 2.446-2.0907 3.192-3.696l3.192 2.296c-.933 1.9787-2.389 3.584-4.368 4.816-1.978 1.1947-4.33 1.792-7.056 1.792zm0-26.488c-1.232 0-2.352.224-3.36.672-1.008.4107-1.885 1.008-2.632 1.792-.709.784-1.269 1.7173-1.68 2.8-.41 1.0453-.616 2.2027-.616 3.472v.392h15.96v-.616c0-2.576-.709-4.6293-2.128-6.16-1.381-1.568-3.229-2.352-5.544-2.352zm20.371 25.816v-28.896h4.48v4.704h.224c.709-1.6427 1.698-2.9493 2.968-3.92 1.306-.9707 3.042-1.456 5.208-1.456 2.986 0 5.338.9707 7.056 2.912 1.754 1.904 2.632 4.6107 2.632 8.12v18.536h-4.48v-17.752c0-5.1893-2.184-7.784-6.552-7.784-.896 0-1.774.112-2.632.336-.822.224-1.568.56-2.24 1.008s-1.214 1.0267-1.624 1.736c-.374.672-.56 1.4747-.56 2.408v20.048z"/></g></svg>

<svg width="443" height="80" viewBox="0 0 443 80" fill="none" xmlns="http://www.w3.org/2000/svg">
<path d="M0 80L19.7143 0L96 20.6742L81.3871 79.9729L31.808 47.6405L0 80Z" fill="#2B2B2B"/>
<path d="M139.824 60.672C137.285 60.672 134.989 60.2427 132.936 59.384C130.92 58.488 129.184 57.2 127.728 55.52C126.309 53.8027 125.208 51.6933 124.424 49.192C123.64 46.6533 123.248 43.7413 123.248 40.456C123.248 37.1707 123.64 34.2773 124.424 31.776C125.208 29.2747 126.309 27.1653 127.728 25.448C129.184 23.7307 130.92 22.4427 132.936 21.584C134.989 20.688 137.285 20.24 139.824 20.24C142.325 20.24 144.603 20.688 146.656 21.584C148.709 22.4427 150.445 23.7307 151.864 25.448C153.32 27.1653 154.44 29.2747 155.224 31.776C156.008 34.2773 156.4 37.1707 156.4 40.456C156.4 43.7413 156.008 46.6533 155.224 49.192C154.44 51.6933 153.32 53.8027 151.864 55.52C150.445 57.2 148.709 58.488 146.656 59.384C144.603 60.2427 142.325 60.672 139.824 60.672ZM139.824 56.472C141.504 56.472 143.053 56.1733 144.472 55.576C145.891 54.9787 147.104 54.12 148.112 53C149.157 51.88 149.96 50.536 150.52 48.968C151.08 47.4 151.36 45.6453 151.36 43.704V37.208C151.36 35.2667 151.08 33.512 150.52 31.944C149.96 30.376 149.157 29.032 148.112 27.912C147.104 26.792 145.891 25.9333 144.472 25.336C143.053 24.7387 141.504 24.44 139.824 24.44C138.144 24.44 136.595 24.7387 135.176 25.336C133.757 25.9333 132.525 26.792 131.48 27.912C130.472 29.032 129.688 30.376 129.128 31.944C128.568 33.512 128.288 35.2667 128.288 37.208V43.704C128.288 45.6453 128.568 47.4 129.128 48.968C129.688 50.536 130.472 51.88 131.48 53C132.525 54.12 133.757 54.9787 135.176 55.576C136.595 56.1733 138.144 56.472 139.824 56.472ZM169.668 60C168.1 60 166.906 59.5707 166.084 58.712C165.3 57.816 164.908 56.696 164.908 55.352V18.56H169.388V56.08H173.644V60H169.668ZM201.666 60C199.986 60 198.773 59.552 198.026 58.656C197.317 57.76 196.869 56.64 196.682 55.296H196.402C195.768 57.088 194.722 58.432 193.266 59.328C191.81 60.224 190.074 60.672 188.058 60.672C184.997 60.672 182.608 59.888 180.89 58.32C179.21 56.752 178.37 54.624 178.37 51.936C178.37 49.2107 179.36 47.12 181.338 45.664C183.354 44.208 186.472 43.48 190.69 43.48H196.402V40.624C196.402 38.5707 195.842 37.0027 194.722 35.92C193.602 34.8373 191.885 34.296 189.57 34.296C187.816 34.296 186.341 34.688 185.146 35.472C183.989 36.256 183.018 37.3013 182.234 38.608L179.546 36.088C180.33 34.52 181.581 33.1947 183.298 32.112C185.016 30.992 187.181 30.432 189.794 30.432C193.304 30.432 196.029 31.2907 197.97 33.008C199.912 34.7253 200.882 37.1147 200.882 40.176V56.08H204.186V60H201.666ZM188.786 56.864C189.906 56.864 190.933 56.7333 191.866 56.472C192.8 56.2107 193.602 55.8373 194.274 55.352C194.946 54.8667 195.469 54.3067 195.842 53.672C196.216 53.0373 196.402 52.3467 196.402 51.6V46.84H190.466C187.89 46.84 186.005 47.2133 184.81 47.96C183.653 48.7067 183.074 49.7893 183.074 51.208V52.384C183.074 53.8027 183.578 54.904 184.586 55.688C185.632 56.472 187.032 56.864 188.786 56.864ZM217.027 60L206.891 31.104H211.371L216.411 45.44L219.547 55.296H219.827L222.963 45.44L228.115 31.104H232.427L222.235 60H217.027ZM247.385 60.672C244.697 60.672 242.439 60.168 240.609 59.16C238.817 58.1147 237.268 56.7333 235.961 55.016L239.153 52.44C240.273 53.8587 241.524 54.96 242.905 55.744C244.287 56.4907 245.892 56.864 247.721 56.864C249.625 56.864 251.1 56.4533 252.145 55.632C253.228 54.8107 253.769 53.6533 253.769 52.16C253.769 51.04 253.396 50.088 252.649 49.304C251.94 48.4827 250.633 47.9227 248.729 47.624L246.433 47.288C245.089 47.1013 243.857 46.8213 242.737 46.448C241.617 46.0373 240.628 45.5147 239.769 44.88C238.948 44.208 238.295 43.3867 237.809 42.416C237.361 41.4453 237.137 40.288 237.137 38.944C237.137 37.5253 237.399 36.2933 237.921 35.248C238.444 34.1653 239.153 33.2693 240.049 32.56C240.983 31.8507 242.084 31.328 243.353 30.992C244.623 30.6187 245.985 30.432 247.441 30.432C249.793 30.432 251.753 30.8427 253.321 31.664C254.927 32.4853 256.327 33.624 257.521 35.08L254.553 37.768C253.919 36.872 252.985 36.0693 251.753 35.36C250.521 34.6133 248.972 34.24 247.105 34.24C245.239 34.24 243.82 34.6507 242.849 35.472C241.916 36.256 241.449 37.3387 241.449 38.72C241.449 40.1387 241.916 41.1653 242.849 41.8C243.82 42.4347 245.201 42.9013 246.993 43.2L249.233 43.536C252.444 44.0213 254.721 44.9547 256.065 46.336C257.409 47.68 258.081 49.4533 258.081 51.656C258.081 54.456 257.129 56.6587 255.225 58.264C253.321 59.8693 250.708 60.672 247.385 60.672ZM272.496 60C270.928 60 269.733 59.5707 268.912 58.712C268.128 57.816 267.736 56.6587 267.736 55.24V35.024H262.976V31.104H265.664C266.634 31.104 267.288 30.9173 267.624 30.544C267.997 30.1333 268.184 29.4427 268.184 28.472V23.096H272.216V31.104H278.544V35.024H272.216V56.08H278.096V60H272.496ZM296.946 60.672C295.004 60.672 293.231 60.3173 291.626 59.608C290.02 58.8987 288.639 57.8907 287.482 56.584C286.362 55.24 285.484 53.6533 284.85 51.824C284.215 49.9573 283.898 47.8667 283.898 45.552C283.898 43.2747 284.215 41.2027 284.85 39.336C285.484 37.4693 286.362 35.8827 287.482 34.576C288.639 33.232 290.02 32.2053 291.626 31.496C293.231 30.7867 295.004 30.432 296.946 30.432C298.887 30.432 300.642 30.7867 302.21 31.496C303.815 32.2053 305.196 33.232 306.354 34.576C307.511 35.8827 308.407 37.4693 309.042 39.336C309.676 41.2027 309.994 43.2747 309.994 45.552C309.994 47.8667 309.676 49.9573 309.042 51.824C308.407 53.6533 307.511 55.24 306.354 56.584C305.196 57.8907 303.815 58.8987 302.21 59.608C300.642 60.3173 298.887 60.672 296.946 60.672ZM296.946 56.696C299.372 56.696 301.351 55.9493 302.882 54.456C304.412 52.9627 305.178 50.6853 305.178 47.624V43.48C305.178 40.4187 304.412 38.1413 302.882 36.648C301.351 35.1547 299.372 34.408 296.946 34.408C294.519 34.408 292.54 35.1547 291.01 36.648C289.479 38.1413 288.714 40.4187 288.714 43.48V47.624C288.714 50.6853 289.479 52.9627 291.01 54.456C292.54 55.9493 294.519 56.696 296.946 56.696ZM317.862 31.104H322.342V35.808H322.566C323.312 33.9787 324.395 32.6347 325.814 31.776C327.27 30.88 329.006 30.432 331.022 30.432C332.814 30.432 334.438 30.7867 335.894 31.496C337.35 32.2053 338.582 33.2133 339.59 34.52C340.635 35.8267 341.419 37.4133 341.942 39.28C342.502 41.1467 342.782 43.2373 342.782 45.552C342.782 47.8667 342.502 49.9573 341.942 51.824C341.419 53.6907 340.635 55.2773 339.59 56.584C338.582 57.8907 337.35 58.8987 335.894 59.608C334.438 60.3173 332.814 60.672 331.022 60.672C327.102 60.672 324.283 58.88 322.566 55.296H322.342V71.2H317.862V31.104ZM329.79 56.64C332.328 56.64 334.326 55.856 335.782 54.288C337.238 52.6827 337.966 50.592 337.966 48.016V43.088C337.966 40.512 337.238 38.44 335.782 36.872C334.326 35.2667 332.328 34.464 329.79 34.464C328.782 34.464 327.811 34.6133 326.878 34.912C325.982 35.1733 325.198 35.5467 324.526 36.032C323.854 36.5173 323.312 37.1147 322.902 37.824C322.528 38.496 322.342 39.224 322.342 40.008V50.76C322.342 51.6933 322.528 52.5333 322.902 53.28C323.312 53.9893 323.854 54.6053 324.526 55.128C325.198 55.6133 325.982 55.9867 326.878 56.248C327.811 56.5093 328.782 56.64 329.79 56.64ZM350.846 31.104H355.326V35.808H355.55C356.297 33.9787 357.379 32.6347 358.798 31.776C360.254 30.88 361.99 30.432 364.006 30.432C365.798 30.432 367.422 30.7867 368.878 31.496C370.334 32.2053 371.566 33.2133 372.574 34.52C373.619 35.8267 374.403 37.4133 374.926 39.28C375.486 41.1467 375.766 43.2373 375.766 45.552C375.766 47.8667 375.486 49.9573 374.926 51.824C374.403 53.6907 373.619 55.2773 372.574 56.584C371.566 57.8907 370.334 58.8987 368.878 59.608C367.422 60.3173 365.798 60.672 364.006 60.672C360.086 60.672 357.267 58.88 355.55 55.296H355.326V71.2H350.846V31.104ZM362.774 56.64C365.313 56.64 367.31 55.856 368.766 54.288C370.222 52.6827 370.95 50.592 370.95 48.016V43.088C370.95 40.512 370.222 38.44 368.766 36.872C367.31 35.2667 365.313 34.464 362.774 34.464C361.766 34.464 360.795 34.6133 359.862 34.912C358.966 35.1733 358.182 35.5467 357.51 36.032C356.838 36.5173 356.297 37.1147 355.886 37.824C355.513 38.496 355.326 39.224 355.326 40.008V50.76C355.326 51.6933 355.513 52.5333 355.886 53.28C356.297 53.9893 356.838 54.6053 357.51 55.128C358.182 55.6133 358.966 55.9867 359.862 56.248C360.795 56.5093 361.766 56.64 362.774 56.64ZM394.694 60.672C392.716 60.672 390.924 60.3173 389.318 59.608C387.75 58.8987 386.388 57.8907 385.23 56.584C384.11 55.24 383.233 53.6533 382.598 51.824C382.001 49.9573 381.702 47.8667 381.702 45.552C381.702 43.2747 382.001 41.2027 382.598 39.336C383.233 37.4693 384.11 35.8827 385.23 34.576C386.388 33.232 387.75 32.2053 389.318 31.496C390.924 30.7867 392.716 30.432 394.694 30.432C396.636 30.432 398.372 30.7867 399.902 31.496C401.433 32.2053 402.74 33.1947 403.822 34.464C404.905 35.696 405.726 37.1707 406.286 38.888C406.884 40.6053 407.182 42.4907 407.182 44.544V46.672H386.406V48.016C386.406 49.248 386.593 50.4053 386.966 51.488C387.377 52.5333 387.937 53.448 388.646 54.232C389.393 55.016 390.289 55.632 391.334 56.08C392.417 56.528 393.63 56.752 394.974 56.752C396.804 56.752 398.39 56.3227 399.734 55.464C401.116 54.6053 402.18 53.3733 402.926 51.768L406.118 54.064C405.185 56.0427 403.729 57.648 401.75 58.88C399.772 60.0747 397.42 60.672 394.694 60.672ZM394.694 34.184C393.462 34.184 392.342 34.408 391.334 34.856C390.326 35.2667 389.449 35.864 388.702 36.648C387.993 37.432 387.433 38.3653 387.022 39.448C386.612 40.4933 386.406 41.6507 386.406 42.92V43.312H402.366V42.696C402.366 40.12 401.657 38.0667 400.238 36.536C398.857 34.968 397.009 34.184 394.694 34.184ZM415.065 60V31.104H419.545V35.808H419.769C420.478 34.1653 421.467 32.8587 422.737 31.888C424.043 30.9173 425.779 30.432 427.945 30.432C430.931 30.432 433.283 31.4027 435.001 33.344C436.755 35.248 437.633 37.9547 437.633 41.464V60H433.153V42.248C433.153 37.0587 430.969 34.464 426.601 34.464C425.705 34.464 424.827 34.576 423.969 34.8C423.147 35.024 422.401 35.36 421.729 35.808C421.057 36.256 420.515 36.8347 420.105 37.544C419.731 38.216 419.545 39.0187 419.545 39.952V60H415.065Z" fill="#2B2B2B"/>
</svg>
